images/pages/set_currency/eur.svg

<?xml version="1.0" encoding="UTF-8"?>
<svg width="28px" height="20px" viewBox="0 0 28 20" version="1.1" xmlns="http://www.w3.org/2000/svg" xmlns:xlink="http://www.w3.org/1999/xlink">
    <!-- Generator: Sketch 44.1 (41455) - http://www.bohemiancoding.com/sketch -->
    <title>currency/ic-eur</title>
    <desc>Created with Sketch.</desc>
    <defs>
        <rect id="path-1" x="0" y="0" width="28" height="20" rx="2"></rect>
    </defs>
    <g id="Flows-to-create-CR" stroke="none" stroke-width="1" fill="none" fill-rule="evenodd">
        <g id="4-Choose-Currency-(Combine-Version)" transform="translate(-686.000000, -431.000000)">
            <g id="Group-10" transform="translate(305.000000, 138.000000)">
                <g id="Group-8" transform="translate(97.000000, 241.000000)">
                    <g id="Group-6-Copy" transform="translate(0.000000, 37.000000)">
                        <g id="Group-16-Copy">
                            <g id="Group-4">
                                <g id="Group">
                                    <g id="Group-13" transform="translate(238.000000, 0.000000)">
                                        <g id="currency/ic-eur" transform="translate(46.000000, 15.000000)">
                                            <mask id="mask-2" fill="white">
                                                <use xlink:href="#path-1"></use>
                                            </mask>
                                            <use id="Mask" fill="#FFFFFF" xlink:href="#path-1"></use>
                                            <rect id="Mask-Copy" fill="#043CAE" mask="url(#mask-2)" x="0" y="0" width="28" height="20"></rect>
                                            <path d="M14,4 L13.057191,4.27614237 L13.3333333,3.33333333 L13.057191,2.39052429 L14,2.66666667 L14.942809,2.39052429 L14.6666667,3.33333333 L14.942809,4.27614237 L14,4 Z M14,17.3333333 L13.057191,17.6094757 L13.3333333,16.6666667 L13.057191,15.7238576 L14,16 L14.942809,15.7238576 L14.6666667,16.6666667 L14.942809,17.6094757 L14,17.3333333 Z M20.6666667,10.6666667 L19.7238576,10.942809 L20,10 L19.7238576,9.05719096 L20.6666667,9.33333333 L21.6094757,9.05719096 L21.3333333,10 L21.6094757,10.942809 L20.6666667,10.6666667 Z M7.33333333,10.6666667 L6.39052429,10.942809 L6.66666667,10 L6.39052429,9.05719096 L7.33333333,9.33333333 L8.27614237,9.05719096 L8,10 L8.27614237,10.942809 L7.33333333,10.6666667 Z M19.7735027,7.33333333 L18.8306937,7.60947571 L19.106836,6.66666667 L18.8306937,5.72385763 L19.7735027,6 L20.7163117,5.72385763 L20.4401694,6.66666667 L20.7163117,7.60947571 L19.7735027,7.33333333 Z M8.22649731,14 L7.28368827,14.2761424 L7.55983064,13.3333333 L7.28368827,12.3905243 L8.22649731,12.6666667 L9.16930635,12.3905243 L8.89316397,13.3333333 L9.16930635,14.2761424 L8.22649731,14 Z M17.3333333,4.89316397 L16.3905243,5.16930635 L16.6666667,4.22649731 L16.3905243,3.28368827 L17.3333333,3.55983064 L18.2761424,3.28368827 L18,4.22649731 L18.2761424,5.16930635 L17.3333333,4.89316397 Z M10.6666667,16.4401694 L9.72385763,16.7163117 L10,15.7735027 L9.72385763,14.8306937 L10.6666667,15.106836 L11.6094757,14.8306937 L11.3333333,15.7735027 L11.6094757,16.7163117 L10.6666667,16.4401694 Z M19.7735027,14 L18.8306937,14.2761424 L19.106836,13.3333333 L18.8306937,12.3905243 L19.7735027,12.6666667 L20.7163117,12.3905243 L20.4401694,13.3333333 L20.7163117,14.2761424 L19.7735027,14 Z M8.22649731,7.33333333 L7.28368827,7.60947571 L7.55983064,6.66666667 L7.28368827,5.72385763 L8.22649731,6 L9.16930635,5.72385763 L8.89316397,6.66666667 L9.16930635,7.60947571 L8.22649731,7.33333333 Z M17.3333333,16.4401694 L16.3905243,16.7163117 L16.6666667,15.7735027 L16.3905243,14.8306937 L17.3333333,15.106836 L18.2761424,14.8306937 L18,15.7735027 L18.2761424,16.7163117 L17.3333333,16.4401694 Z M10.6666667,4.89316397 L9.72385763,5.16930635 L10,4.22649731 L9.72385763,3.28368827 L10.6666667,3.55983064 L11.6094757,3.28368827 L11.3333333,4.22649731 L11.6094757,5.16930635 L10.6666667,4.89316397 Z" id="Star-2" fill="#FFD429" mask="url(#mask-2)"></path>
                                        </g>
                                    </g>
                                </g>
                            </g>
                        </g>
                    </g>
                </g>
            </g>
        </g>
    </g>
</svg>

<svg width="28" height="20" viewBox="0 0 28 20" xmlns="http://www.w3.org/2000/svg" xmlns:xlink="http://www.w3.org/1999/xlink"><title>currency/ic-eur</title><defs><rect id="a" width="28" height="20" rx="2"/></defs><g fill="none" fill-rule="evenodd"><mask id="b" fill="#fff"><use xlink:href="#a"/></mask><use fill="#FFF" xlink:href="#a"/><path fill="#043CAE" mask="url(#b)" d="M0 0h28v20H0z"/><path d="M14 4l-.943.276.276-.943-.276-.942.943.276.943-.276-.276.942.276.943L14 4zm0 13.333l-.943.276.276-.942-.276-.943L14 16l.943-.276-.276.943.276.942-.943-.276zm6.667-6.666l-.943.276L20 10l-.276-.943.943.276.942-.276-.276.943.276.943-.942-.276zm-13.334 0l-.942.276.276-.943-.276-.943.942.276.943-.276L8 10l.276.943-.943-.276zm12.44-3.334l-.942.276.276-.942-.276-.943.943.276.942-.276-.276.943.276.942-.942-.276zM8.227 14l-.942.276.276-.943-.276-.942.942.276.943-.276-.276.942.276.943L8.226 14zm9.107-9.107l-.942.276.276-.943-.276-.942.942.276.943-.276-.276.942.276.943-.943-.276zM10.667 16.44l-.943.276.276-.942-.276-.943.943.276.942-.276-.276.943.276.942-.942-.276zM19.774 14l-.943.276.276-.943-.276-.942.943.276.942-.276-.276.942.276.943-.942-.276zM8.226 7.333l-.942.276.276-.942-.276-.943.942.276.943-.276-.276.943.276.942-.943-.276zm9.107 9.107l-.942.276.276-.942-.276-.943.942.276.943-.276-.276.943.276.942-.943-.276zM10.667 4.893l-.943.276.276-.943-.276-.942.943.276.942-.276-.276.942.276.943-.942-.276z" fill="#FFD429" mask="url(#b)"/></g></svg>
